X:14
T:Polska efter From-Olle
R:polska J
A:H\"alsingland
Z:id:hn-jp-14
M:3/4
L:1/16
K:G
d3g b4 b4 | d2Bd dcAc B2G2 | d3g g2b2 b2g2 | d2Bd dcAc B2G2 | 
D4 {cd}c3B A2G2 | F3E D2C2 B,2A,2 | G,A,B,C DEFG A2c2 | BAGF G8 :| 
 |: d2BG DGBd c2B2 | c2AF DFAc B2A2 | e4 dedB c2A2 | G3B AGFE D4 | 
d2BG DGBd c2B2 | c2AF DFAc B2A2 | GABc d2e2 f2d2 | g3a/g/ fefa g4 | 
G2AB c2ed cBAG | FGAF G8 :|
